style/elvis/src/icons/svg/src/upload.svg

<svg width="24" height="25" viewBox="0 0 24 25" fill="none" xmlns="http://www.w3.org/2000/svg">
<path d="M12.001 16.519C11.587 16.519 11.251 16.1826 11.251 15.7681V5.56739L8.03101 8.79109C7.89001 8.93226 7.70101 9.01035 7.50101 9.01035C7.30101 9.01035 7.11201 8.93226 6.97101 8.79009C6.82901 8.64893 6.75101 8.45971 6.75101 8.25948C6.75101 8.05925 6.82901 7.87004 6.97101 7.72887L11.47 3.2237C11.54 3.15362 11.622 3.09856 11.715 3.06051C11.723 3.05751 11.731 3.05451 11.74 3.0515C11.826 3.01947 11.913 3.00345 12.001 3.00345C12.09 3.00345 12.178 3.01947 12.262 3.0515C12.269 3.05351 12.276 3.05651 12.282 3.05851C12.379 3.09856 12.461 3.15362 12.532 3.2247L17.031 7.72887C17.173 7.87004 17.251 8.05925 17.251 8.25948C17.251 8.45971 17.173 8.64893 17.031 8.79009C16.889 8.93125 16.701 9.01035 16.501 9.01035C16.301 9.01035 16.112 8.93226 15.971 8.79009L12.751 5.56639V15.7681C12.751 16.1826 12.415 16.519 12.001 16.519Z" fill="black"/>
<path d="M3.75101 21.0241C1.68301 21.0241 0.00100708 19.3402 0.00100708 17.2698V15.7681C0.00100708 15.3536 0.337007 15.0172 0.751007 15.0172C1.16501 15.0172 1.50101 15.3536 1.50101 15.7681V17.2698C1.50101 18.5123 2.51001 19.5224 3.75101 19.5224H20.251C21.492 19.5224 22.501 18.5123 22.501 17.2698V15.7681C22.501 15.3536 22.837 15.0172 23.251 15.0172C23.665 15.0172 24.001 15.3536 24.001 15.7681V17.2698C24.001 19.3402 22.319 21.0241 20.251 21.0241H3.75101Z" fill="black"/>
</svg>

<svg width="24" height="25" fill="none" xmlns="http://www.w3.org/2000/svg"><path d="M12.001 16.519a.75.75 0 01-.75-.75V5.566L8.031 8.79a.745.745 0 01-1.06 0 .744.744 0 01-.22-.532c0-.2.078-.389.22-.53l4.499-4.505a.74.74 0 01.245-.163l.025-.01a.743.743 0 01.522 0l.02.008c.097.04.179.095.25.166l4.499 4.504c.142.141.22.33.22.53s-.078.39-.22.531a.748.748 0 01-1.06 0l-3.22-3.224v10.202a.75.75 0 01-.75.751z" fill="#1B314B"/><path d="M3.751 21.024a3.756 3.756 0 01-3.75-3.754v-1.502a.75.75 0 111.5 0v1.502a2.253 2.253 0 002.25 2.252h16.5c1.241 0 2.25-1.01 2.25-2.252v-1.502a.75.75 0 111.5 0v1.502a3.756 3.756 0 01-3.75 3.754h-16.5z" fill="#1B314B"/></svg>
